X:1
T:Apostle Islands, 11.11.11.11
T:Apostle Islands, 11.11.11.11
T:Myers G. Chapman, 1897
T:Public Domain Courtesy of the Cyber Hymnal™
C:Myers G. Chapman, 1897
Z:Public Domain
Z:Courtesy of the Cyber Hymnal™
%%score ( 1 2 ) ( 3 4 )
L:1/8
Q:1/4=86
M:2/4
K:Ab
V:1 treble 
V:2 treble 
V:3 bass 
V:4 bass 
V:1
 [CE][CE] [EA][EA] | [DF]2 [DA]2 | [DG][DG] [DB][DB] | (A2 E2) | [CE][CE] [EA][EA] | [DF]2 [DA]2 | %6
 [=DA][DA] [EB][Dc] | B4 | [CE][CE] [EA][EA] | [DF]2 [DA]2 | [DG][DG] [DB][DB] | (A2 E2) | %12
 [CE][CE] [EA][EA] | [DF]2 [DA]2 | [EA][EA] [Ac][GB] | [EA]6 |] %16
V:2
 x4 | x4 | x4 | C4 | x4 | x4 | x4 | (E2 D2) | x4 | x4 | x4 | C4 | x4 | x4 | x4 | x6 |] %16
V:3
 [A,,A,][A,,A,] [C,A,][C,A,] | [D,A,]2 [F,A,]2 | [E,B,][E,B,] [E,G,][E,G,] | (E,2 A,2) | %4
 [A,,A,][A,,A,] [C,A,][C,A,] | [D,A,]2 [F,A,]2 | [B,,F,][B,,F,] [B,,G,][B,,A,] | [E,G,]4 | %8
 [A,,A,][A,,A,] [C,A,][C,A,] | [D,A,]2 [F,A,]2 | [E,B,][E,B,] [E,G,][E,G,] | (E,2 A,2) | %12
 [A,,A,][A,,A,] [C,A,][C,A,] | [D,A,]2 [F,A,]2 | [E,C][E,C] [E,E][E,D] | [A,,C]6 |] %16
V:4
 x4 | x4 | x4 | A,,4 | x4 | x4 | x4 | x4 | x4 | x4 | x4 | A,,4 | x4 | x4 | x4 | x6 |] %16

